build/img/microscope.svg

<svg width="32" height="43" viewBox="0 0 32 43" fill="none" xmlns="http://www.w3.org/2000/svg">
<path d="M30.7692 27.7406H20.338C19.6721 27.7406 19.1274 28.2842 19.1274 28.9485C19.1274 29.6128 19.6721 30.1564 20.338 30.1564H23.6066C21.5082 33.015 18.1387 34.7664 14.5069 34.7664C8.29256 34.7664 3.24842 29.7135 3.24842 23.5332C3.24842 18.279 6.81967 13.7898 11.9243 12.5819L11.8436 12.2397L17.6141 21.7818L24.7163 17.4939L15.9798 3.08006C15.7377 2.67743 15.3544 2.3956 14.9105 2.29494C14.5069 2.19429 14.0832 2.23455 13.6999 2.43586L12.227 0L7.88903 2.61704L9.36192 5.03277C9.01892 5.27434 8.7768 5.61657 8.67591 6.03933C8.55485 6.48221 8.63556 6.96536 8.87768 7.36798L10.29 9.68305C4.17654 11.515 0 17.0712 0 23.5131C0 29.8544 4.11601 35.2495 9.8058 37.2022C8.89786 38.1283 8.33291 39.4167 8.33291 40.8057V43H20.681V40.8057C20.681 39.3965 20.116 38.1283 19.2081 37.2022C22.6986 36.0145 25.6646 33.4981 27.3997 30.1564H30.7894C31.4552 30.1564 32 29.6128 32 28.9485C31.9798 28.2842 31.4351 27.7406 30.7692 27.7406ZM11.5006 9.36096L16.5448 6.32116L17.2913 7.56929L12.2673 10.6091L11.5006 9.36096ZM18.0177 20.0908L12.8928 11.6358L17.9168 8.59597L23.0416 17.051L18.0177 20.0908ZM9.84615 6.32116C9.88651 6.18024 9.96721 6.05946 10.0883 5.99906L10.9962 5.45552L9.5435 3.03979L11.8235 1.67088L13.2963 4.08661L14.2043 3.54307C14.3253 3.46255 14.4666 3.44242 14.6078 3.48268C14.7491 3.52294 14.8701 3.60346 14.9306 3.72425L15.8991 5.31461L10.8752 8.33427L9.90668 6.74391C9.84615 6.603 9.82598 6.46208 9.84615 6.32116ZM10.7541 40.5843C10.8752 39.1751 12.0656 38.0478 13.4981 38.0478H15.4754C16.9281 38.0478 18.1185 39.1751 18.2194 40.5843H10.7541Z" fill="white"/>
<path d="M25.3289 18.3583L18.0948 22.7225L18.7212 23.7561L25.9553 19.3919L25.3289 18.3583Z" fill="white"/>
</svg>

<svg width="32" height="43" fill="none" xmlns="http://www.w3.org/2000/svg"><path d="M30.77 27.74H20.337c-.666 0-1.21.544-1.21 1.209 0 .664.544 1.207 1.21 1.207h3.269a11.303 11.303 0 01-9.1 4.61c-6.214 0-11.259-5.052-11.259-11.233 0-5.254 3.572-9.743 8.676-10.951l-.08-.342 5.77 9.542 7.102-4.288L15.98 3.08a1.685 1.685 0 00-1.07-.785c-.403-.1-.827-.06-1.21.14L12.227 0 7.889 2.617l1.473 2.416a1.694 1.694 0 00-.686 1.006 1.72 1.72 0 00.202 1.329l1.412 2.315A14.372 14.372 0 000 23.513c0 6.341 4.116 11.736 9.806 13.69a5.163 5.163 0 00-1.473 3.603V43H20.68v-2.194c0-1.41-.565-2.678-1.473-3.604a14.53 14.53 0 008.192-7.046h3.39c.665 0 1.21-.543 1.21-1.207a1.244 1.244 0 00-1.23-1.208zM11.5 9.362l5.045-3.04.746 1.248-5.024 3.04-.766-1.248zm6.518 10.73l-5.125-8.455 5.024-3.04 5.125 8.455-5.024 3.04zM9.846 6.32a.5.5 0 01.242-.32l.908-.543L9.543 3.04l2.28-1.37 1.473 2.417.908-.544a.48.48 0 01.404-.06.5.5 0 01.323.241l.968 1.59-5.024 3.02-.968-1.59c-.06-.141-.081-.282-.06-.423zm.908 34.263c.121-1.409 1.312-2.536 2.744-2.536h1.977a2.75 2.75 0 012.744 2.536h-7.465z" fill="#fff"/><path d="M25.329 18.358l-7.234 4.364.626 1.034 7.234-4.364-.626-1.034z" fill="#fff"/></svg>
